findly-builder/apps/searchassist/src/assets/icons/resultranking/dropdownleft.svg

<svg width="12" height="12" viewBox="0 0 12 12" fill="none" xmlns="http://www.w3.org/2000/svg">
<path fill-rule="evenodd" clip-rule="evenodd" d="M8.44727 6C8.44727 5.84766 8.3916 5.71582 8.28027 5.60449L4.34277 1.66699C4.23144 1.55566 4.09961 1.5 3.94727 1.5C3.79492 1.5 3.66309 1.55566 3.55176 1.66699C3.44043 1.77832 3.38477 1.91016 3.38477 2.0625L3.38477 9.9375C3.38477 10.0898 3.44043 10.2217 3.55176 10.333C3.66309 10.4443 3.79492 10.5 3.94727 10.5C4.09961 10.5 4.23145 10.4443 4.34277 10.333L8.28027 6.39551C8.3916 6.28418 8.44727 6.15234 8.44727 6Z" fill="#A8C8DD"/>
</svg>

<svg width="12" height="12" fill="none" xmlns="http://www.w3.org/2000/svg"><path fill-rule="evenodd" clip-rule="evenodd" d="M8.447 6a.54.54 0 0 0-.167-.396L4.343 1.667a.54.54 0 0 0-.396-.167.54.54 0 0 0-.395.167.54.54 0 0 0-.167.395v7.876a.54.54 0 0 0 .167.395.54.54 0 0 0 .395.167.54.54 0 0 0 .396-.167L8.28 6.396A.54.54 0 0 0 8.447 6Z" fill="#A8C8DD"/></svg>
